study/img/ndensity.svg

<?xml version="1.0" standalone="no"?><!DOCTYPE svg PUBLIC "-//W3C//DTD SVG 1.1//EN" "http://www.w3.org/Graphics/SVG/1.1/DTD/svg11.dtd"><svg style="height: 100px; width: 200px;" id="normalDens" version="1.1" xmlns="http://www.w3.org/2000/svg" xmlns:xlink="http://www.w3.org/1999/xlink"><defs xmlns="http://www.w3.org/1999/xhtml"><style type="text/css"><![CDATA[
#panel { display: grid; grid-gap: 10px 10px; margin: 20px; }
#panel button { align-self: center; margin: auto; }
.vis { border-style: solid; border-width: 5px; border-color: rgb(255, 255, 255); }
.selected { border-color: crimson; }
.vis:hover { border-style: solid; border-width: 5px; border-color: rgb(51, 51, 51); }
#prompt { color: gray; }
#prompt span { color: black; }
.fig { display: flex; flex-wrap: wrap; width: 50%; margin: auto; justify-content: center; }
.figImg { width: 30%; }
.figCaption { font-size: 85%; align-self: center; }
input[type="submit"], button { background-color: rgb(51, 51, 51); border: none; color: white; padding: 5px 8px; text-align: center; text-decoration: none; display: inline-block; border-radius: 4px; font-size: 16px; }
input[type="submit"]:disabled, button:disabled { background-color: rgb(221, 221, 221); }
input[type="submit"]:hover:enabled, button:hover:enabled { background-color: rgb(85, 85, 85); }]]></style></defs><path fill="#333" d="M0,99.99991811092808C1.3333333333333333,99.99974899196832,2.666666666666667,99.99957987300857,4,99.99890339716954C5.333333333333333,99.99822692133051,6.666666666666667,99.99570314554406,8,99.98930264229307C9.333333333333334,99.98290213904208,10.666666666666666,99.96741534212443,12,99.92364074178715C13.333333333333334,99.87986614144988,14.666666666666666,99.8152615437243,16,99.59850314759862C17.333333333333332,99.38174475147294,18.666666666666668,99.13415204939507,20,98.4300463520819C21.333333333333332,97.72594065476873,22.666666666666668,96.85395400818922,24,95.37386896371959C25.333333333333336,93.89378391924994,26.666666666666668,91.85817754252604,28.000000000000004,89.54953608526407C29.333333333333336,87.2408946280021,30.666666666666668,84.14688823403839,32,81.52202022014778C33.333333333333336,78.89715220625718,34.666666666666664,75.83819891568002,36,73.8003280019204C37.333333333333336,71.76245708816079,38.666666666666664,69.52670556056427,40,69.29479473759007C41.333333333333336,69.06288391461587,42.666666666666664,68.94692850312877,44,68.94692850312877C45.333333333333336,68.94692850312877,46.666666666666664,70.49250513342763,48,71.06061879974415C49.333333333333336,71.62873246606067,50.666666666666664,72.35561050102793,52,72.35561050102793C53.333333333333336,72.35561050102793,54.66666666666667,71.11692057656018,56.00000000000001,68.63954072762468C57.333333333333336,66.16216087868919,58.66666666666667,61.63704917362766,60,55.96817354326982C61.333333333333336,50.29929791291197,62.666666666666664,41.89783288165245,64,34.62628694547759C65.33333333333333,27.354741009302725,66.66666666666667,18.109945750466903,68,12.338897926220639C69.33333333333333,6.567850101974375,70.66666666666667,0,72,0C73.33333333333333,0,74.66666666666667,0.7581713318248262,76,2.2745139954744786C77.33333333333333,3.790856659124131,78.66666666666667,10.052487858310023,80,14.146252274012298C81.33333333333333,18.240016689714572,82.66666666666667,23.401547308422895,84,26.837100489688126C85.33333333333333,30.272653670953357,86.66666666666667,32.991192257627944,88,34.759571361603676C89.33333333333333,36.52795046557941,90.66666666666667,37.14564129054678,92,37.44737511354251C93.33333333333333,37.74910893653825,94.66666666666667,37.59824202504038,96,37.899975848036114C97.33333333333333,38.20170967103185,98.66666666666667,38.66539438938411,100,39.757586815887876C101.33333333333333,40.84977924239164,102.66666666666667,42.8147840203244,104,44.453130407058715C105.33333333333333,46.09147679379303,106.66666666666667,48.77378902500086,108,49.58766513629374C109.33333333333334,50.401541247586614,110.66666666666667,50.80847930323306,112.00000000000001,50.80847930323306C113.33333333333334,50.80847930323306,114.66666666666666,48.43589633411408,115.99999999999999,47.31371676803495C117.33333333333333,46.19153720195582,118.66666666666666,44.07540190675828,120,44.07540190675828C121.33333333333333,44.07540190675828,122.66666666666667,44.793550121243825,124,46.229846550214916C125.33333333333333,47.666142979186006,126.66666666666667,50.88134561342302,128,53.36715655443563C129.33333333333334,55.85296749544824,130.66666666666666,58.98893172496909,132,61.144712196290584C133.33333333333334,63.300492667612076,134.66666666666666,64.97164932577125,136,66.30183938236456C137.33333333333334,67.63202943895787,138.66666666666666,68.11672885285465,140,69.12585253585041C141.33333333333334,70.13497621884618,142.66666666666666,70.95892396820699,144,72.35658148033914C145.33333333333334,73.7542389924713,146.66666666666666,75.81353001519949,148,77.5117976086433C149.33333333333334,79.21006520208712,150.66666666666666,81.33875109237377,152,82.54618704100207C153.33333333333334,83.75362298963037,154.66666666666666,84.68028486032351,156,84.75641330041313C157.33333333333334,84.83254174050275,158.66666666666666,84.79447752045795,160,84.87060596054756C161.33333333333334,84.94673440063718,162.66666666666666,85.25582206108419,164,86.02625426215742C165.33333333333334,86.79668646323066,166.66666666666666,88.27134456437022,168,89.62237623662658C169.33333333333334,90.97340790888293,170.66666666666666,92.81595897856022,172,94.13244429569554C173.33333333333334,95.44892961283085,174.66666666666666,96.67258208372101,176,97.52128813943845C177.33333333333334,98.3699941951559,178.66666666666666,98.84130095375829,180,99.22468063000021C181.33333333333334,99.60806030624212,182.66666666666666,99.72265204098899,184,99.82156619688995C185.33333333333334,99.9204803527909,186.66666666666666,99.95235778251856,188,99.96993743074138C189.33333333333334,99.9875170789642,190.66666666666666,99.99406470102475,192,99.9963069030756C193.33333333333334,99.99854910512646,194.66666666666666,99.99946458353857,196,99.99967020615188C197.33333333333334,99.99987582876518,198.66666666666666,99.99992723441852,200,99.99997864007184L200,100C198.66666666666666,100,197.33333333333334,100,196,100C194.66666666666666,100,193.33333333333334,100,192,100C190.66666666666666,100,189.33333333333334,100,188,100C186.66666666666666,100,185.33333333333334,100,184,100C182.66666666666666,100,181.33333333333334,100,180,100C178.66666666666666,100,177.33333333333334,100,176,100C174.66666666666666,100,173.33333333333334,100,172,100C170.66666666666666,100,169.33333333333334,100,168,100C166.66666666666666,100,165.33333333333334,100,164,100C162.66666666666666,100,161.33333333333334,100,160,100C158.66666666666666,100,157.33333333333334,100,156,100C154.66666666666666,100,153.33333333333334,100,152,100C150.66666666666666,100,149.33333333333334,100,148,100C146.66666666666666,100,145.33333333333334,100,144,100C142.66666666666666,100,141.33333333333334,100,140,100C138.66666666666666,100,137.33333333333334,100,136,100C134.66666666666666,100,133.33333333333334,100,132,100C130.66666666666666,100,129.33333333333334,100,128,100C126.66666666666667,100,125.33333333333333,100,124,100C122.66666666666667,100,121.33333333333333,100,120,100C118.66666666666666,100,117.33333333333333,100,115.99999999999999,100C114.66666666666666,100,113.33333333333334,100,112.00000000000001,100C110.66666666666667,100,109.33333333333334,100,108,100C106.66666666666667,100,105.33333333333333,100,104,100C102.66666666666667,100,101.33333333333333,100,100,100C98.66666666666667,100,97.33333333333333,100,96,100C94.66666666666667,100,93.33333333333333,100,92,100C90.66666666666667,100,89.33333333333333,100,88,100C86.66666666666667,100,85.33333333333333,100,84,100C82.66666666666667,100,81.33333333333333,100,80,100C78.66666666666667,100,77.33333333333333,100,76,100C74.66666666666667,100,73.33333333333333,100,72,100C70.66666666666667,100,69.33333333333333,100,68,100C66.66666666666667,100,65.33333333333333,100,64,100C62.666666666666664,100,61.333333333333336,100,60,100C58.66666666666667,100,57.333333333333336,100,56.00000000000001,100C54.66666666666667,100,53.333333333333336,100,52,100C50.666666666666664,100,49.333333333333336,100,48,100C46.666666666666664,100,45.333333333333336,100,44,100C42.666666666666664,100,41.333333333333336,100,40,100C38.666666666666664,100,37.333333333333336,100,36,100C34.666666666666664,100,33.333333333333336,100,32,100C30.666666666666668,100,29.333333333333336,100,28.000000000000004,100C26.666666666666668,100,25.333333333333336,100,24,100C22.666666666666668,100,21.333333333333332,100,20,100C18.666666666666668,100,17.333333333333332,100,16,100C14.666666666666666,100,13.333333333333334,100,12,100C10.666666666666666,100,9.333333333333334,100,8,100C6.666666666666667,100,5.333333333333333,100,4,100C2.666666666666667,100,1.3333333333333333,100,0,100Z"/></svg>

<?xml version="1.0" encoding="utf-8"?>
<!-- Generator: Adobe Illustrator 16.0.4, SVG Export Plug-In . SVG Version: 6.00 Build 0)  -->
<!DOCTYPE svg PUBLIC "-//W3C//DTD SVG 1.1//EN" "http://www.w3.org/Graphics/SVG/1.1/DTD/svg11.dtd">
<svg version="1.1" id="normalDens" xmlns="http://www.w3.org/2000/svg" xmlns:xlink="http://www.w3.org/1999/xlink" x="0px" y="0px"
	 width="200px" height="100px" viewBox="0 0 200 100" enable-background="new 0 0 200 100" xml:space="preserve">
<defs  xmlns="http://www.w3.org/1999/xhtml">
	<style  type="text/css">
		<![CDATA[
#panel { display: grid; grid-gap: 10px 10px; margin: 20px; }
#panel button { align-self: center; margin: auto; }
.vis { border-style: solid; border-width: 5px; border-color: rgb(255, 255, 255); }
.selected { border-color: crimson; }
.vis:hover { border-style: solid; border-width: 5px; border-color: rgb(51, 51, 51); }
#prompt { color: gray; }
#prompt span { color: black; }
.fig { display: flex; flex-wrap: wrap; width: 50%; margin: auto; justify-content: center; }
.figImg { width: 30%; }
.figCaption { font-size: 85%; align-self: center; }
input[type="submit"], button { background-color: rgb(51, 51, 51); border: none; color: white; padding: 5px 8px; text-align: center; text-decoration: none; display: inline-block; border-radius: 4px; font-size: 16px; }
input[type="submit"]:disabled, button:disabled { background-color: rgb(221, 221, 221); }
input[type="submit"]:hover:enabled, button:hover:enabled { background-color: rgb(85, 85, 85); }
			]]>
	</style>
</defs>
<path fill="#333333" d="M0,100c1.333,0,2.667,0,4-0.001c1.333-0.001,2.667-0.003,4-0.01s2.667-0.022,4-0.065
	c1.333-0.044,2.667-0.108,4-0.325s2.667-0.464,4-1.168s2.667-1.576,4-3.056c1.333-1.48,2.667-3.516,4-5.824
	c1.333-2.309,2.667-5.403,4-8.028s2.667-5.684,4-7.722c1.333-2.038,2.667-4.273,4-4.505s2.667-0.348,4-0.348s2.667,1.546,4,2.114
	c1.333,0.568,2.667,1.295,4,1.295s2.667-1.238,4-3.716s2.667-7.002,4-12.671s2.667-14.07,4-21.342
	c1.333-7.272,2.667-16.517,4-22.288S70.667,0,72,0s2.667,0.758,4,2.274c1.333,1.517,2.667,7.778,4,11.872s2.667,9.255,4,12.69
	s2.667,6.154,4,7.923c1.333,1.768,2.667,2.386,4,2.688s2.667,0.151,4,0.453s2.667,0.766,4,1.858c1.333,1.092,2.667,3.057,4,4.695
	s2.667,4.321,4,5.135c1.333,0.813,2.667,1.221,4,1.221s2.667-2.373,4-3.495c1.333-1.122,2.667-3.238,4-3.238s2.667,0.718,4,2.155
	c1.333,1.436,2.667,4.651,4,7.137s2.667,5.622,4,7.777s2.667,3.827,4,5.157s2.667,1.815,4,2.824c1.333,1.009,2.667,1.833,4,3.23
	c1.333,1.398,2.667,3.457,4,5.155s2.667,3.827,4,5.035c1.333,1.207,2.667,2.134,4,2.21s2.667,0.038,4,0.114s2.667,0.385,4,1.156
	s2.667,2.245,4,3.596s2.667,3.193,4,4.51s2.667,2.541,4,3.389s2.667,1.32,4,1.703s2.667,0.498,4,0.597
	c1.333,0.099,2.667,0.131,4,0.148s2.667,0.024,4,0.026c1.333,0.002,2.667,0.003,4,0.003c1.333,0,2.667,0,4,0l0,0
	c-1.333,0-2.667,0-4,0s-2.667,0-4,0s-2.667,0-4,0s-2.667,0-4,0s-2.667,0-4,0s-2.667,0-4,0s-2.667,0-4,0s-2.667,0-4,0s-2.667,0-4,0
	s-2.667,0-4,0s-2.667,0-4,0s-2.667,0-4,0s-2.667,0-4,0s-2.667,0-4,0s-2.667,0-4,0s-2.667,0-4,0s-2.667,0-4,0s-2.667,0-4,0
	s-2.667,0-4,0s-2.667,0-4,0s-2.667,0-4,0s-2.667,0-4,0s-2.667,0-4,0s-2.667,0-4,0s-2.667,0-4,0s-2.667,0-4,0s-2.667,0-4,0
	s-2.667,0-4,0s-2.667,0-4,0s-2.667,0-4,0s-2.667,0-4,0s-2.667,0-4,0s-2.667,0-4,0s-2.667,0-4,0s-2.667,0-4,0s-2.667,0-4,0
	s-2.667,0-4,0s-2.667,0-4,0s-2.667,0-4,0s-2.667,0-4,0s-2.667,0-4,0s-2.667,0-4,0s-2.667,0-4,0s-2.667,0-4,0s-2.667,0-4,0
	s-2.667,0-4,0s-2.667,0-4,0s-2.667,0-4,0s-2.667,0-4,0S1.333,100,0,100L0,100z"/>
</svg>
